Catalina-light/apps/64/slimlock.svg

<?xml version="1.0" encoding="UTF-8" standalone="no"?>
<!-- Created with Inkscape (http://www.inkscape.org/) -->

<svg
   xmlns:dc="http://purl.org/dc/elements/1.1/"
   xmlns:cc="http://creativecommons.org/ns#"
   xmlns:rdf="http://www.w3.org/1999/02/22-rdf-syntax-ns#"
   xmlns:svg="http://www.w3.org/2000/svg"
   xmlns="http://www.w3.org/2000/svg"
   xmlns:sodipodi="http://sodipodi.sourceforge.net/DTD/sodipodi-0.dtd"
   xmlns:inkscape="http://www.inkscape.org/namespaces/inkscape"
   width="64"
   height="64"
   viewBox="0 0 16.933333 16.933334"
   version="1.1"
   id="svg8"
   inkscape:version="0.92.4 (5da689c313, 2019-01-14)"
   sodipodi:docname="action-lock-screen.svg">
  <defs
     id="defs2" />
  <sodipodi:namedview
     id="base"
     pagecolor="#ffffff"
     bordercolor="#666666"
     borderopacity="1.0"
     inkscape:pageopacity="0.0"
     inkscape:pageshadow="2"
     inkscape:zoom="3.959798"
     inkscape:cx="-16.10232"
     inkscape:cy="19.556348"
     inkscape:document-units="mm"
     inkscape:current-layer="layer1"
     showgrid="false"
     units="px"
     inkscape:window-width="1920"
     inkscape:window-height="1023"
     inkscape:window-x="0"
     inkscape:window-y="29"
     inkscape:window-maximized="1"
     showguides="true"
     inkscape:guide-bbox="true">
    <sodipodi:guide
       position="7.9493116,13.500838"
       orientation="0,1"
       id="guide4525"
       inkscape:locked="false" />
  </sodipodi:namedview>
  <metadata
     id="metadata5">
    <rdf:RDF>
      <cc:Work
         rdf:about="">
        <dc:format>image/svg+xml</dc:format>
        <dc:type
           rdf:resource="http://purl.org/dc/dcmitype/StillImage" />
        <dc:title />
      </cc:Work>
    </rdf:RDF>
  </metadata>
  <g
     inkscape:label="Capa 1"
     inkscape:groupmode="layer"
     id="layer1"
     transform="translate(0,-280.06665)">
    <path
       style="opacity:1;fill:#25282d;fill-opacity:0.61176473;stroke-width:1.07655489"
       d="M 32.099609 2.2148438 C 15.45721 2.2143902 1.9654594 15.705263 1.9648438 32.347656 C 1.9643741 48.990806 15.456443 62.482875 32.099609 62.482422 C 48.742014 62.481817 62.232891 48.99005 62.232422 32.347656 C 62.231806 15.706018 48.741247 2.2154484 32.099609 2.2148438 z M 32.023438 16.291016 C 36.474605 16.2954 40.962891 19.864449 40.962891 25.978516 L 40.962891 29.517578 L 42.501953 29.517578 C 43.665311 29.517578 44.603516 30.453811 44.603516 31.617188 L 44.603516 46.306641 C 44.603516 47.470017 43.665311 48.40625 42.501953 48.40625 L 21.695312 48.40625 C 20.531955 48.40625 19.59375 47.470017 19.59375 46.306641 L 19.59375 31.617188 C 19.59375 30.453811 20.531955 29.517578 21.695312 29.517578 L 23.083984 29.517578 L 23.083984 25.947266 C 23.083984 19.845634 27.57227 16.287803 32.023438 16.291016 z M 32.023438 19.488281 C 29.135485 19.485447 26.283203 21.301622 26.283203 25.947266 L 26.283203 29.517578 L 37.763672 29.517578 L 37.763672 25.978516 C 37.763673 21.316582 34.911391 19.491116 32.023438 19.488281 z M 31.927734 34.429688 A 2.5876915 2.5876915 0 0 0 29.341797 37.017578 A 2.5876915 2.5876915 0 0 0 31.142578 39.480469 L 31.013672 39.982422 L 30.095703 43.496094 L 31.927734 43.496094 L 33.763672 43.496094 L 32.845703 39.982422 L 32.712891 39.478516 A 2.5876915 2.5876915 0 0 0 34.515625 37.017578 A 2.5876915 2.5876915 0 0 0 31.927734 34.429688 z "
       transform="matrix(0.26458333,0,0,0.26458333,0,280.06665)"
       id="path815" />
    <g
       id="g824"
       transform="translate(0.25985811,-0.31496282)" />
  </g>
</svg>

<svg width="64" height="64" version="1.1" viewBox="0 0 16.933 16.933" xmlns="http://www.w3.org/2000/svg">
<g transform="translate(0 -280.07)">
<path transform="matrix(.26458 0 0 .26458 0 280.07)" d="m32.1 2.2148c-16.642-4.536e-4 -30.134 13.49-30.135 30.133-4.697e-4 16.643 13.492 30.135 30.135 30.135 16.642-6.05e-4 30.133-13.492 30.133-30.135-6.16e-4 -16.642-13.491-30.132-30.133-30.133zm-0.076171 14.076c4.4512 0.004384 8.9395 3.5734 8.9395 9.6875v3.5391h1.5391c1.1634 0 2.1016 0.93623 2.1016 2.0996v14.689c0 1.1634-0.9382 2.0996-2.1016 2.0996h-20.807c-1.1634 0-2.1016-0.93623-2.1016-2.0996v-14.689c0-1.1634 0.9382-2.0996 2.1016-2.0996h1.3887v-3.5703c0-6.1016 4.4883-9.6595 8.9395-9.6562zm0 3.1973c-2.888-0.002834-5.7402 1.8133-5.7402 6.459v3.5703h11.48v-3.5391c1e-6 -4.6619-2.8523-6.4874-5.7402-6.4902zm-0.095704 14.941a2.5877 2.5877 0 0 0-2.5859 2.5879 2.5877 2.5877 0 0 0 1.8008 2.4629l-0.12891 0.50195-0.91797 3.5137h1.832 1.8359l-0.91797-3.5137-0.13281-0.50391a2.5877 2.5877 0 0 0 1.8027-2.4609 2.5877 2.5877 0 0 0-2.5879-2.5879z" fill="#25282d" fill-opacity=".61176" stroke-width="1.0766"/>
</g>
</svg>
